X:3024
T:Jim Keefe's Polka
O:england
M:2/4
L:1/16
Q:137
R:Polka
D:Jackie Daly "Music from Sliabh Luachra
K:D
e2a2 cecB|A2c2 E2A2|c2B2 B2ce|f2e2 c2e2|
e2a2 cecB|A2c2 E2c2|cBcB c2B2|1A4 A4:|2A4 A3B|
:c2B2 B2ce|f2e2 c2B2|c2B2 B2ce|f2e2 c2e2|
e2a2 cecB|A2c2 E2A2|cBcB c2B2|1A4 A3B:|2A4 A4||


